!!!!SEGMENT: pl-wtm--iii-41-637-3--001-001_joteyko-tadeusz--sonatine-f-dur-op-18-no-3-i-le-printemps.krn
!!!cenid: 19xx:109
!!!COM: Joteyko, Tadeusz
!!!COM-rismID: pe50046072
!!!CDT: 1872-1932
!!!CNT: Polish
!!!OPR: Sonatine F-dur Op. 18 No. 3
!!!OTL: I. Le printemps
!!!OMV: 001
!!!PDT:
!!!AGN: Secular; Sonata
!!!YEC: Copyright 2022 Narodowy Instytut Fryderyka Chopina (https://polishscores.org)
!!!YEM: License CC-BY-4.0 (https://creativecommons.org/licenses/by/4.0)
!!!SMS-siglum: PL-Wtm
!!!SMS-shelfmark: III.41.637-3
!!!SMS-variant:
!!!SMS-altvar:
!!!SMS-shelfwork: 001-001 M
!!!NIFC-rismSourceID: 1001141265
!!!NIFC-rismChildID: 1001141265
!!!NIFC-islandoraID: pl-wtm:20267
!!!URL-pdf-islandora: https://repozytorium.nifc.pl/islandora/object/pl-wtm%3A20267/datastream/PDF/view
!!!URL-scan: https://polish.musicsources.pl/pl/lokalizacje/galeria/druki-muzyczne/17523/2 @EN{Scan on Polish Music Sources Website} @PL{Skany w portalu Dziedzictwo Muzyki Polskiej w otwartym dostępie}
!!!IIIF:
!!!ONB-nifc: UWAGA: części Sonatiny: I. Le printemps, II. Noel, III. La fete au village
!!!OMD: Allegro non troppo.
!!!AIN: 2 piano
!!!key: F
**kern	**fing	**kern	**fing	**dynam	**kern	**fing
*part2	*part2	*part2	*part2	*part2	*part1	*part1
*staff3	*staff3	*staff2	*staff2	*	*staff1	*staff1
*ICklav	*	*ICklav	*	*	*ICklav	*
*Ipiano	*	*Ipiano	*	*	*Ipiano	*
*I"PIANO.	*	*I"PIANO.	*	*	*	*
*clefF4	*	*clefG2	*	*	*clefG2	*
*k[b-]	*	*k[b-]	*	*	*k[b-]	*
*F:	*	*F:	*	*	*F:	*
*M6/8	*	*M6/8	*	*	*M6/8	*
=1	=1	=1	=1	=1	=1	=1
!	!	!LO:TX:b:i:t=legato	!	!	!LO:TX:t=P:problem=partia zapisana w celu objaśnienia sposobu gry tr.t.35, 43.	!
2.r	.	16f/LL	2	pp	2.ryy	.
.	.	16a/	4	.	.	.
.	.	16f/	.	.	.	.
.	.	16a/	.	.	.	.
.	.	16f/	.	.	.	.
.	.	16a/JJ	.	.	.	.
.	.	16f/LL	.	.	.	.
.	.	16a/	.	.	.	.
.	.	16f/	.	.	.	.
.	.	16a/	.	.	.	.
.	.	16f/	.	.	.	.
.	.	16a/JJ	.	.	.	.
=2	=2	=2	=2	=2	=2	=2
*	*below	*	*	*	*	*
!LO:TX:b:i:t=marcato ed espressivo	!	!	!	!	!	!
(4F\	5	16f/LL	.	p	2.ryy	.
.	.	16a/	.	.	.	.
.	.	16f/	.	.	.	.
.	.	16a/	.	.	.	.
8G\	4	16f/	.	.	.	.
.	.	16a/JJ	.	.	.	.
8A\L	3	16f/LL	.	.	.	.
.	.	16a/	.	.	.	.
8c\	2	16f/	.	.	.	.
.	.	16a/	.	.	.	.
8e\J	1	16f/	.	.	.	.
.	.	16a/JJ	.	.	.	.
=3	=3	=3	=3	=3	=3	=3
4d\	2	16f/LL	.	.	2.ryy	.
.	.	16a/	.	.	.	.
.	.	16f/	.	.	.	.
.	.	16a/	.	.	.	.
8A\	5	16f/	.	.	.	.
.	.	16a/JJ	.	.	.	.
4.c\)	3	16f/LL	.	.	.	.
.	.	16a/	.	.	.	.
.	.	16f/	.	.	.	.
.	.	16a/	.	.	.	.
.	.	16f/	.	.	.	.
.	.	16a/JJ	.	.	.	.
!!LO:LB:g=original
=4	=4	=4	=4	=4	=4	=4
(8A\L	2	16f/LL	.	.	2.ryy	.
.	.	16a/	.	.	.	.
8G\	.	16f/	.	.	.	.
.	.	16a/	.	.	.	.
8F\J	.	16f/	.	.	.	.
.	.	16a/JJ	.	.	.	.
4.A\)	.	16f/LL	.	.	.	.
.	.	16a/	.	.	.	.
.	.	16f/	.	.	.	.
.	.	16a/	.	.	.	.
.	.	16f/	.	.	.	.
.	.	16a/JJ	.	.	.	.
=5	=5	=5	=5	=5	=5	=5
(8A\L	.	16f/LL	.	<	2.ryy	.
.	.	16a/	.	.	.	.
8G\	.	16f/	.	.	.	.
.	.	16a/	.	.	.	.
8F\J	.	16f/	.	.	.	.
.	.	16a/JJ	.	.	.	.
[4.A\)	.	16e/LL 16f	1 2	.	.	.
.	.	16a/	.	.	.	.
.	.	16e/ 16f	.	.	.	.
.	.	16a/	.	.	.	.
.	.	16e/ 16f	.	.	.	.
.	.	16a/JJ	.	[	.	.
=6	=6	=6	=6	=6	=6	=6
2.A\]	.	16d/LL 16f	1 2	.	2.ryy	.
.	.	16a/	.	.	.	.
.	.	16d/ 16f	.	.	.	.
.	.	16a/	.	.	.	.
.	.	16d/ 16f	.	.	.	.
.	.	16a/JJ	.	.	.	.
.	.	16d-X/LL 16f	1 2	.	.	.
.	.	16a/	.	.	.	.
.	.	16d-/ 16f	.	.	.	.
.	.	16a/	.	.	.	.
.	.	16d-/ 16f	.	.	.	.
.	.	16a/JJ	.	.	.	.
=7	=7	=7	=7	=7	=7	=7
!	!	!LO:TX:b:i:t=poco rit.	!	!	!	!
4.A\	3	16c/LL 16e	1 2	>	2.ryy	.
.	.	16cc/	5	.	.	.
.	.	16c/ 16e	.	.	.	.
.	.	16cc/	.	.	.	.
.	.	16c/ 16e	.	.	.	.
.	.	16cc/JJ	.	.	.	.
8B-\L	2	16c/LL 16e	.	.	.	.
.	.	16cc/	.	.	.	.
8A\	1	16dn/ 16f	.	.	.	.
.	.	16cc/	.	.	.	.
8G\J	3	16e/ 16g	.	.	.	.
.	.	16cc/JJ	.	]	.	.
!!LO:LB:g=original
=8	=8	=8	=8	=8	=8	=8
.	.	(8qf/	1	p	.	.
*^	*	*	*	*	*	*
!LO:TX:t=P:problem=wspólna główka i podwójna belka t.8-11	!	!	!LO:TX:b:i:t=a tempo	!	!	!	!
16F\LL	2.F/	4	(4ff\)	5-1	.	2.ryy	.
16A\	.	.	.	.	.	.	.
16c\	.	.	.	.	.	.	.
16A\	.	.	.	.	.	.	.
16c\	.	.	8gg\	2	.	.	.
16A\JJ	.	.	.	.	.	.	.
16c\LL	.	.	8aa\L	1	.	.	.
16A\	.	.	.	.	.	.	.
16c\	.	.	8ccc\	3	.	.	.
16A\	.	.	.	.	.	.	.
16c\	.	.	8eee\J	5	.	.	.
16A\JJ	.	.	.	.	.	.	.
=9	=9	=9	=9	=9	=9	=9	=9
16F\LL	4.F/	4	4ddd\	4	.	2.ryy	.
16A\	.	2	.	.	.	.	.
16d\	.	1	.	.	.	.	.
16A\	.	.	.	.	.	.	.
16d\	.	.	8aa\	1	.	.	.
16A\JJ	.	.	.	.	.	.	.
16F\LL	4.F/	.	4.ccc\)	3	.	.	.
16A\	.	.	.	.	.	.	.
16c\	.	.	.	.	.	.	.
16A\	.	.	.	.	.	.	.
16c\	.	.	.	.	.	.	.
16A\JJ	.	.	.	.	.	.	.
=10	=10	=10	=10	=10	=10	=10	=10
16F\LL	4.F/	.	(8aa\L	4	.	2.ryy	.
16A\	.	.	.	.	.	.	.
16c\	.	.	8gg\	.	.	.	.
16A\	.	.	.	.	.	.	.
16c\	.	.	8ff\J	.	.	.	.
16A\JJ	.	.	.	.	.	.	.
16E\LL	4.E/	5	4.aa\)	.	.	.	.
16A\	.	.	.	.	.	.	.
16c\	.	.	.	.	.	.	.
16A\	.	.	.	.	.	.	.
16c\	.	.	.	.	.	.	.
16A\JJ	.	.	.	.	.	.	.
=11	=11	=11	=11	=11	=11	=11	=11
16D\LL	4.D/	5	(8aa\L	.	<	2.ryy	.
16F\	.	.	.	.	.	.	.
16A\	.	.	8gg\	.	.	.	.
16F\	.	.	.	.	.	.	.
16A\	.	.	8ff\J	.	.	.	.
16F\JJ	.	.	.	.	.	.	.
16C#X\LL	4.C#/	5	4.aa\)	.	.	.	.
16F\	.	2	.	.	.	.	.
16A\	.	.	.	.	.	.	.
16F\	.	.	.	.	.	.	.
16A\	.	.	.	.	[	.	.
16F\JJ	.	.	.	.	.	.	.
*v	*v	*	*	*	*	*	*
!!LO:LB:g=original
=12	=12	=12	=12	=12	=12	=12
[2.D\ [2.F [2.Bn	.	(4aa\	5	mf	2.ryy	.
.	.	8dd\)	1	.	.	.
.	.	8dd\L	2	.	.	.
.	.	8ee\	3	.	.	.
.	.	8ff\J	4	.	.	.
=13	=13	=13	=13	=13	=13	=13
2.D\_ 2.F_ 2.B_	.	8gg\L	5	.	2.ryy	.
.	.	8ff\	4	.	.	.
.	.	8dd\J	2	.	.	.
.	.	8ee\L	3	.	.	.
.	.	8dd\	2	.	.	.
.	.	8a\J	1	.	.	.
=14	=14	=14	=14	=14	=14	=14
4D\] 4F] 4B]	.	8cc\L	4	.	2.ryy	.
.	.	8bn\	.	.	.	.
8r	.	8f\J	.	.	.	.
4r	.	8a/L	3	>	.	.
.	.	8g/	.	.	.	.
8r	.	8d/J	.	.	.	.
=15	=15	=15	=15	=15	=15	=15
2.r	.	8f/L	2	.	2.ryy	.
.	.	8e/	.	.	.	.
.	.	8f/J	.	.	.	.
.	.	8f#X/L	3	.	.	.
.	.	8g/	1	.	.	.
.	.	8g#X/J	2	]	.	.
=16	=16	=16	=16	=16	=16	=16
!	!	!LO:TX:b:i:t=cantabile	!	!	!	!
(4GG/	.	[4.fn/ [4.a	1 3	p	2.ryy	.
8D\	.	.	.	.	.	.
4G\)	.	8f/L] 8a]	.	.	.	.
.	.	(<8ee/	5	.	.	.
8r	.	8bn/J	2	.	.	.
!!LO:LB:g=original
=17	=17	=17	=17	=17	=17	=17
(4C/	.	[4.dd\)	4	.	2.ryy	.
8G\	.	.	.	.	.	.
4c\)	.	8dd\L]	.	.	.	.
.	.	(8cc\	2	.	.	.
8r	.	8cc#X\J	3	.	.	.
=18	=18	=18	=18	=18	=18	=18
(4C/	3	4.dd\)	1	<	2.ryy	.
8D\	2	.	.	.	.	.
4F#X\)	1	8dd\L	.	.	.	.
.	.	(8bb-X\	5	.	.	.
8r	.	8ff#X\J	2	[[	.	.
=19	=19	=19	=19	=19	=19	=19
(4AA/	4	[4.aa\)	4	.	2.ryy	.
8D\	2	.	.	.	.	.
4G\)	.	8aa\L]	.	.	.	.
.	.	(8gg\	.	.	.	.
8r	.	8aa\J	.	.	.	.
=20	=20	=20	=20	=20	=20	=20
(4BBn/	4	[4.ff\)	2	<	2.ryy	.
8D\	.	.	.	.	.	.
4G\)	.	8ff\L]	.	.	.	.
.	.	(8ff\	3	.	.	.
8r	.	8gg\J	4	[[	.	.
=21	=21	=21	=21	=21	=21	=21
(4C/	4	[4.ee\)	2	.	2.ryy	.
8E\	.	.	.	.	.	.
4G\)	.	8ee\L]	.	.	.	.
.	.	(8ee\	3	.	.	.
8r	.	8ff\J	4	.	.	.
!!LO:PB:g=original
=22	=22	=22	=22	=22	=22	=22
(4C#X/	5	4.ee-X\	2	>	2.ryy	.
8G\	.	.	.	.	.	.
4B-X\)	.	8ee-\L)	.	.	.	.
.	.	(8ee-\	3	.	.	.
8r	.	8ff\J	4	]	.	.
=23	=23	=23	=23	=23	=23	=23
(>(>[4.D\ 4.G 4.Bn	.	4dd\)	2-5	.	2.ryy	.
.	.	8d/	1	.	.	.
8D\])) 8F#X 8c	.	8cc\L	4	.	.	.
8r	.	8bn\	.	.	.	.
8r	.	8a\J	.	.	.	.
=24	=24	=24	=24	=24	=24	=24
(8GG\L	5	[4.f/ [4.a	.	pp	2.ryy	.
16C#X\L	3	.	.	.	.	.
16D\	.	.	.	.	.	.
16E\	.	.	.	.	.	.
16D\JJ	2	.	.	.	.	.
8G\)	1	8f/L] 8a]	.	.	.	.
8r	.	(<8ee/	5	.	.	.
8r	.	8bn/J	2	.	.	.
=25	=25	=25	=25	=25	=25	=25
(8C\L	5	[4.dd\)	4	.	2.ryy	.
16F#X\L	3	.	.	.	.	.
16G\	.	.	.	.	.	.
16A\	.	.	.	.	.	.
16G\JJ	.	.	.	.	.	.
8c\)	.	8dd\L]	.	.	.	.
8r	.	(8cc\	2	.	.	.
8r	.	8cc#X\J	3	.	.	.
=26	=26	=26	=26	=26	=26	=26
(8C\L	4	[4.dd\)	1	<	2.ryy	.
16C#X\L	.	.	.	.	.	.
16D\	.	.	.	.	.	.
16E\	.	.	.	.	.	.
16D\JJ	2	.	.	.	.	.
8F#X\)	1	8dd\L]	.	.	.	.
8r	.	(8bb-X\	5	.	.	.
8r	.	8ff#X\J	2	[	.	.
!!LO:LB:g=original
=27	=27	=27	=27	=27	=27	=27
(8BB-\L	4	[4.aa\)	4	.	2.ryy	.
16C#X\L	3	.	.	.	.	.
16D\	.	.	.	.	.	.
16E\	.	.	.	.	.	.
16D\JJ	.	.	.	.	.	.
8G\)	.	8aa\L]	.	.	.	.
8r	.	(8gg\	2	.	.	.
8r	.	8gg#X\J	3	.	.	.
=28	=28	=28	=28	=28	=28	=28
(8AA\L	5	[4.aa\)	1	mf	2.ryy	.
16D#X\L	3	.	.	.	.	.
16E\	.	.	.	.	.	.
16F\	.	.	.	.	.	.
16E\JJ	.	.	.	.	.	.
8A\)	.	8aa\L]	.	.	.	.
8r	.	(8fff\	.	.	.	.
8r	.	8ccc#X\J	.	.	.	.
=29	=29	=29	=29	=29	=29	=29
(8D\L	4	4.eee\)	4	.	2.ryy	.
16E\L	.	.	.	.	.	.
16F\	.	.	.	.	.	.
16G\	.	.	.	.	.	.
16F\JJ	.	.	.	.	.	.
8A\)	.	8ddd\L	3	.	.	.
8r	.	8ccc\	2	.	.	.
8r	.	8bbn\J	1	.	.	.
=30	=30	=30	=30	=30	=30	=30
(4GG/	.	8aa\L	5	.	2.ryy	.
.	.	8gg\	4	.	.	.
8D\	.	8ff#X\J	3	.	.	.
4G\)	.	8ffn\L	2	>	.	.
.	.	8a\	1	.	.	.
8r	.	8bn\J	2	.	.	.
=31	=31	=31	=31	=31	=31	=31
(4C/	.	((4.f\ 4.dd	.	.	2.ryy	.
8G\	.	.	.	.	.	.
4c\)	.	4e/)) 4cc	.	] pp	.	.
8r	.	8cc#X\	4	.	.	.
!!LO:LB:g=original
=32	=32	=32	=32	=32	=32	=32
4C/	.	4f\ 4a-X 4dd	5	.	2.ryy	.
8G\	.	8bn\	4	.	.	.
4c\	.	4e\ 4g 4cc	5	.	.	.
8G\	.	8cc#X\	4	.	.	.
=33	=33	=33	=33	=33	=33	=33
4C/	.	4f\ 4a-X 4dd	5	.	2.ryy	.
8G\	.	8bn\	.	.	.	.
4c\	.	4e\ 4g 4cc	.	.	.	.
8G\	.	8cc#X\	.	.	.	.
=34	=34	=34	=34	=34	=34	=34
4C/	.	4f\ 4a-X 4dd	.	.	2.ryy	.
8r	.	8ee\	2	<	.	.
4r	.	4ff\	1	.	.	.
8r	.	8ff#X\	2	[[	.	.
=35	=35	=35	=35	=35	=35	=35
2.r	.	[2.ggTT\	.	.	16aa\LL	4
.	.	.	.	.	16gg\	3
.	.	.	.	.	16aa\	.
.	.	.	.	.	16gg\	.
.	.	.	.	.	16aa\	.
.	.	.	.	.	16gg\JJ	.
*	*	*	*	*	*rep	*
.	.	.	.	.	16aa\LL	.
.	.	.	.	.	16gg\	.
.	.	.	.	.	16aa\	.
.	.	.	.	.	16gg\	.
.	.	.	.	.	16aa\	.
.	.	.	.	.	16gg\JJ	.
*	*	*	*	*	*Xrep	*
=36	=36	=36	=36	=36	=36	=36
*	*	*^	*	*	*	*
4G\ 4d 4f	.	2.ggTTT\_	2.r	.	.	2.ryy	.
8G\ 8A#X 8c#X	2 4 5	.	.	.	.	.	.
4G\ 4Bn 4d	1 3 5	.	.	.	.	.	.
8G\ 8c# 8e	1 2 5	.	.	.	.	.	.
*	*	*v	*v	*	*	*	*
=37	=37	=37	=37	=37	=37	=37
4G\ 4d 4f	.	2.ggTTT\_	.	.	2.ryy	.
8G\ 8A#X 8c#X	.	.	.	.	.	.
4G\ 4Bn 4d	.	.	.	.	.	.
8G\ 8c# 8e	.	.	.	.	.	.
!!LO:LB:g=original
=38	=38	=38	=38	=38	=38	=38
((2.G\ 2.d 2.f	.	4.ggTT\]	.	.	2.ryy	.
.	.	(16aa\LL	4	.	.	.
.	.	16gg\	.	.	.	.
.	.	16ff#X\	.	.	.	.
.	.	16gg\	1	.	.	.
.	.	16aa\	2	.	.	.
.	.	16bbn\JJ	3	.	.	.
=39	=39	=39	=39	=39	=39	=39
8c\)) 8e	.	8ccc\)	4	.	2.ryy	.
8r	.	8r	.	.	.	.
!	!	!	!	!LO:HP:t=piu cresc.	!	!
8F\L [8c	4	(8ff\L 8aa	1 3	<	.	.
8E\J 8c]	.	8gg\J) 8ccc	2 5	.	.	.
8r	.	8r	.	.	.	.
8D\L [8A	3	(8ff\L 8aa	2 4	.	.	.
=40	=40	=40	=40	=40	=40	=40
8AA\J 8A]	.	8ee\J) 8ccc	1 5	.	2.ryy	.
8r	.	8r	.	.	.	.
8r	.	8r	.	.	.	.
4FF/ 4F	.	4cc\ 4ff 4aa	5	f	.	.
8r	.	8r	.	.	.	.
=41	=41	=41	=41	=41	=41	=41
4GG/ 4G	.	4cc\ 4ee 4gg	4	.	2.ryy	.
8r	.	8r	.	.	.	.
4r	.	4r	.	.	.	.
8r	.	8r	.	.	.	.
=42	=42	=42	=42	=42	=42	=42
4GG/ 4G	.	4d/ 4f 4bn	.	f	2.ryy	.
8r	.	8r	.	.	.	.
4r	.	4r	.	.	.	.
8r	.	8r	.	.	.	.
=43	=43	=43	=43	=43	=43	=43
2.r	.	2.ccTT\	.	mf	16dd\LL	3
.	.	.	.	.	16cc\	2
.	.	.	.	.	16dd\	.
.	.	.	.	.	16cc\	.
.	.	.	.	.	16dd\	.
.	.	.	.	.	16cc\JJ	.
*	*	*	*	*	*rep	*
.	.	.	.	.	16dd\LL	.
.	.	.	.	.	16cc\	.
.	.	.	.	.	16dd\	.
.	.	.	.	.	16cc\	.
.	.	.	.	.	16dd\	.
.	.	.	.	.	16cc\JJ	.
*clefG2	*	*	*	*	*Xrep	*
!!LO:LB:g=original
=44	=44	=44	=44	=44	=44	=44
4c/ 4g 4b-X	.	[2.ccTT\	.	.	2.ryy	.
8c#X/ 8d#X 8f#X	2 4 5	.	.	.	.	.
4c#/ 4e 4g	1 3 5	.	.	.	.	.
8c#/ 8f# 8a	1 2 5	.	.	.	.	.
=45	=45	=45	=45	=45	=45	=45
4c/ 4g 4b-	.	2.ccTTT\_	.	.	2.ryy	.
8c#X/ 8d#X 8f#X	.	.	.	.	.	.
4c#/ 4e 4g	.	.	.	.	.	.
8c#/ 8f# 8a	.	.	.	.	.	.
=46	=46	=46	=46	=46	=46	=46
2.c/ 2.g 2.b-	.	4.ccTTT\]	.	.	2.ryy	.
.	.	(16dd\LL	3	.	.	.
.	.	16cc\	2	.	.	.
.	.	16bn\	1	.	.	.
.	.	16cc\	2	.	.	.
.	.	16dd\	3	.	.	.
.	.	16ee\JJ	4	.	.	.
*clefF4	*	*	*	*	*	*
=47	=47	=47	=47	=47	=47	=47
*^	*	*	*	*	*	*
4r	2.D-X\	.	8ff/L)	5	.	2.ryy	.
.	.	.	8f/	1	.	.	.
8r	.	.	8g/J	2	.	.	.
4.Bn/	.	.	8f/L 8a-X	3	.	.	.
.	.	.	8g/	1	.	.	.
.	.	.	8f/J	2	.	.	.
*v	*v	*	*	*	*	*	*
=48	=48	=48	=48	=48	=48	=48
!LO:TX:b:i:t=marcato	!	!	!	!	!	!
(4C\ 4c	.	8e\L	1	.	2.ryy	.
.	.	8cc\	5	.	.	.
8D\	4	8bn\J	4	.	.	.
8E\L	3	8g\L	1	.	.	.
8G\	2	8ee\	5	.	.	.
8Bn\J	1	8dd\J	4	.	.	.
!!LO:LB:g=original
=49	=49	=49	=49	=49	=49	=49
4A\	2	8cc\L	1	.	2.ryy	.
.	.	8aa\	5	.	.	.
8E\	5	8gg\J	.	.	.	.
4.G\)	3	8ff\L	.	.	.	.
.	.	8ee\	.	.	.	.
.	.	8dd\J	.	.	.	.
=50	=50	=50	=50	=50	=50	=50
!	!	!LO:TX:b:i:t=marcato	!	!	!	!
8A\L	5	(4cc\	1	.	2.ryy	.
8f\	1	.	.	.	.	.
8e\J	2	8dd\	2	.	.	.
8G\L	5	8ee\L	1	.	.	.
8e\	1	8gg\	3	.	.	.
8d\J	2	8bbn\J	5	.	.	.
=51	=51	=51	=51	=51	=51	=51
8F\L	5	4aa\	4	.	2.ryy	.
8d\	.	.	.	.	.	.
8c\J	.	8ee\	1	.	.	.
8E\L	5	4gg\	4	.	.	.
8c\	.	.	.	.	.	.
8Bn\J	2	8dd#X\)	2	.	.	.
=52	=52	=52	=52	=52	=52	=52
8G\L	4	(4ee\	1	.	2.ryy	.
8Bn\	2	.	.	.	.	.
8A\J	1	8ff#X\	2	<	.	.
8G\L	2	8gg\L	1	.	.	.
8E\	4	8bbn\	2	.	.	.
8C\J	5	8eee\J	5	[[	.	.
=53	=53	=53	=53	=53	=53	=53
8D\L	4	4ddd\	4	.	2.ryy	.
8E\	.	.	.	.	.	.
8F#X\J	.	8aa\	1	.	.	.
8G\L	1	4bbn\)	2	.	.	.
8A\	2	.	.	.	.	.
8G\J	3	8r	.	.	.	.
!!LO:PB:g=original
=54	=54	=54	=54	=54	=54	=54
8F#X\L	4	(4ccc\	4	.	2.ryy	.
8c\	1	.	.	.	.	.
8Bn\J	2	8gg\	1	.	.	.
8c\L	1	4aa\)	2	.	.	.
8d\	2	.	.	.	.	.
8c\J	3	8r	.	.	.	.
=55	=55	=55	=55	=55	=55	=55
8Bn\L	4	(4bbn\	5	.	2.ryy	.
8c#X\	.	.	.	.	.	.
8d#X\J	.	8ff#X\	2	.	.	.
8e\L	1	4gg\)	3	.	.	.
8f#X\	2	.	.	.	.	.
8e\J	1	8r	.	.	.	.
=56	=56	=56	=56	=56	=56	=56
(4d#X\	2	8aa\L	4	>	2.ryy	.
.	.	8gg\	3	.	.	.
16A\LL	5	8ff#X\J	2	.	.	.
16Bn\JJ	3	.	.	.	.	.
8c\	2	8ee\L	1	.	.	.
4F#X\)	5	8dd\	2	.	.	.
.	.	8cc\J	1	.	.	.
=57	=57	=57	=57	=57	=57	=57
(4A\	2	8gg\L	4	.	2.ryy	.
.	.	8ff#X\	.	.	.	.
16G\LL	.	8ee\J	.	.	.	.
16A\JJ	.	.	.	.	.	.
8Bn\	1	8dd\L	1	.	.	.
4E\)	4	8cc\	2	.	.	.
.	.	8bn\J	1	.	.	.
=58	=58	=58	=58	=58	=58	=58
(4G\	2	8ffn\L	4	.	2.ryy	.
.	.	8ee\	.	.	.	.
16Fn\LL	.	8dd\J	.	.	.	.
16G\JJ	.	.	.	.	.	.
8A\	.	8cc\L	1	.	.	.
4D\)	4	8bn\	2	.	.	.
.	.	8a\J	1	.	.	.
!!LO:LB:g=original
=59	=59	=59	=59	=59	=59	=59
(4F\	2	8ee\L	4	.	2.ryy	.
.	.	8dd\	.	.	.	.
16E\LL	.	8cc\J	.	.	.	.
16F\JJ	.	.	.	.	.	.
8G\L	1	8bn/L	1	.	.	.
8C\	5	8a/	3	.	.	.
8C#X\J)	4	8g/J	2	.	.	.
=60	=60	=60	=60	=60	=60	=60
!LO:TX:b:i:t=marcato	!	!	!	!	!	!
(4D\	5	16f\LL	1	p	2.ryy	.
.	.	16ff\	.	.	.	.
.	.	16f\	.	.	.	.
.	.	16ff\	.	.	.	.
8E\	4	16g\	.	.	.	.
.	.	16ff\JJ	.	.	.	.
8F\L	3	16a\LL	1	.	.	.
.	.	16ff\	.	.	.	.
8G\	2	16b-X\	2	.	.	.
.	.	16ff\	.	.	.	.
8B-X\J	1	16cc#X\	2	.	.	.
.	.	16ff\JJ	.	.	.	.
=61	=61	=61	=61	=61	=61	=61
4A\	2	16dd\LL	3	.	2.ryy	.
.	.	16ff\	.	.	.	.
.	.	16ee\	.	.	.	.
.	.	16dd\	.	.	.	.
8E\	5	16cc#X\	2	.	.	.
.	.	16ee\JJ	4	.	.	.
4F\)	4	16dd\LL	3	.	.	.
.	.	16ee\	4	.	.	.
.	.	16ff\	1	.	.	.
.	.	16gg\	.	.	.	.
8r	.	16aa\	.	.	.	.
.	.	16bbn\JJ	4	.	.	.
=62	=62	=62	=62	=62	=62	=62
(4A\	5	16ccc\LL	5	.	2.ryy	.
.	.	16cc\	.	.	.	.
.	.	16ccc\	.	.	.	.
.	.	16cc\	.	.	.	.
8Bn\	.	16ccc\	.	.	.	.
.	.	16dd\JJ	.	.	.	.
8c\L	3	16ccc\LL	.	.	.	.
.	.	16ee\	.	.	.	.
8d\	2	16ccc\	.	.	.	.
.	.	16ff\	.	.	.	.
8f\J	1	16ccc\	.	.	.	.
.	.	16gg#X\JJ	2	.	.	.
!!LO:LB:g=original
=63	=63	=63	=63	=63	=63	=63
4e\	2	16aa\LL	3	.	2.ryy	.
.	.	16ccc\	.	.	.	.
.	.	16bbn\	.	.	.	.
.	.	16aa\	.	.	.	.
8Bn\	5	16gg#X\	2	<	.	.
.	.	16bb\JJ	4	.	.	.
4c\)	4	16aa\LL	3	.	.	.
.	.	16bb\	4	.	.	.
.	.	16ccc\	1	.	.	.
.	.	16ddd\	.	.	.	.
8r	.	16eee\	.	.	.	.
.	.	16fff#X\JJ	4	[	.	.
=64	=64	=64	=64	=64	=64	=64
4Bn\	3	16ggg\LL	5	.	2.ryy	.
.	.	16fff#X\	.	.	.	.
.	.	16eee\	.	.	.	.
.	.	16ddd\	.	.	.	.
8r	.	16ccc\	.	.	.	.
.	.	16bbn\JJ	2	.	.	.
4c\	.	16eee\LL	5	.	.	.
.	.	16ddd\	.	.	.	.
.	.	16ccc\	.	.	.	.
.	.	16bb\	.	.	.	.
8r	.	16aa\	.	.	.	.
.	.	16gg\JJ	4	.	.	.
=65	=65	=65	=65	=65	=65	=65
4d\	.	16ff#X\LL	3	.	2.ryy	.
.	.	16ee\	2	.	.	.
.	.	16dd\	1	.	.	.
.	.	16cc\	3	.	.	.
8r	.	16bn\	.	.	.	.
.	.	16a\JJ	1	.	.	.
4G\	.	16ee\LL	5	.	.	.
.	.	16dd\	.	.	.	.
.	.	16cc\	.	.	.	.
.	.	16b\	.	.	.	.
8r	.	16a\	1	.	.	.
.	.	16g\JJ	4	.	.	.
=66	=66	=66	=66	=66	=66	=66
4A-X\	4	16f/LL	3	>	2.ryy	.
.	.	16e/	.	.	.	.
.	.	16d/	.	.	.	.
.	.	16e/	.	.	.	.
8r	.	16f/	.	.	.	.
.	.	16e/JJ	.	.	.	.
4An\	3	16f/LL	.	.	.	.
.	.	16e/	.	.	.	.
.	.	16d/	.	.	.	.
.	.	16e/	.	.	.	.
8r	.	16f/	.	.	.	.
.	.	16e/JJ	.	.	.	.
!!LO:LB:g=original
=67	=67	=67	=67	=67	=67	=67
4B-X\	2	16g/LL	.	.	2.ryy	.
.	.	16f/	.	.	.	.
.	.	16e/	.	.	.	.
.	.	16f/	.	.	.	.
8r	.	16g/	.	.	.	.
.	.	16f/JJ	.	.	.	.
[4.Bn\	1	16g/LL	.	.	.	.
.	.	16f/	.	.	.	.
.	.	16e/	.	.	.	.
.	.	16f/	.	.	.	.
.	.	16g/	.	.	.	.
.	.	16f/JJ	.	.	.	.
=68	=68	=68	=68	=68	=68	=68
8B\L]	.	16g/LL	.	.	2.ryy	.
.	.	16f/	.	.	.	.
(8c\	3	16e/	.	.	.	.
.	.	16f/	.	.	.	.
8d-X\J	2	16g/	.	.	.	.
.	.	16f/JJ	.	.	.	.
4c\	3	16e/LL	2	.	.	.
.	.	16f/	3	.	.	.
.	.	16g/	1	.	.	.
.	.	16a-X/	2	.	.	.
8G\	5	16b-X/	3	.	.	.
.	.	16cc/JJ	4	.	.	.
=69	=69	=69	=69	=69	=69	=69
8B-X\L	2	16dd-X\LL	5	.	2.ryy	.
.	.	16f\	.	.	.	.
8c\	1	16ee-X\	4	.	.	.
.	.	16f\	.	.	.	.
8d-X\J	2	16ff\	5	.	.	.
.	.	16f\JJ	.	.	.	.
4.c\)	1	16een\LL	4	.	.	.
.	.	16cc\	.	.	.	.
.	.	16bn\	.	.	.	.
.	.	16cc\	.	.	.	.
.	.	16ddn\	3	.	.	.
.	.	16cc\JJ	1	.	.	.
=70	=70	=70	=70	=70	=70	=70
[2.C/	5	16b-X/LL	4	.	2.ryy	.
.	.	16a/	.	.	.	.
.	.	16g/	.	.	.	.
.	.	16a/	.	.	.	.
.	.	16b-/	.	.	.	.
.	.	16a/JJ	.	.	.	.
.	.	16g/LL	2	.	.	.
.	.	16f/	1	.	.	.
.	.	16e/	3	.	.	.
.	.	16d/	.	.	.	.
.	.	16c/	.	.	.	.
.	.	16Bn/JJ	2	.	.	.
!!LO:LB:g=original
=71	=71	=71	=71	=71	=71	=71
!LO:TX:t=P:problem=brak zakończenia łuku	!	!	!	!	!	!
4.C/_	.	8c/L	1	p	2.ryy	.
.	.	8e/ 8b- 8cc	.	.	.	.
.	.	8e/J 8b- 8cc	.	.	.	.
4C/]	.	4e/ 4b- 4cc	.	.	.	.
8r	.	8r	.	.	.	.
=72	=72	=72	=72	=72	=72	=72
(8BB-/L	3	2.r	.	.	2.ryy	.
8C/	.	.	.	.	.	.
8D/J	.	.	.	.	.	.
4C/	.	.	.	.	.	.
8GG/)	.	.	.	.	.	.
=73	=73	=73	=73	=73	=73	=73
[4.C/	.	8r	.	.	2.ryy	.
.	.	8e-X/L 8f#X 8a 8cc	.	.	.	.
.	.	8e-/J 8f# 8a 8cc	.	.	.	.
4C/]	.	4e-/ 4f# 4a 4dd	.	.	.	.
8r	.	8r	.	.	.	.
=74	=74	=74	=74	=74	=74	=74
(8B-\L	3	2.r	.	.	2.ryy	.
8c\	.	.	.	.	.	.
8d\J	.	.	.	.	.	.
4c\	.	.	.	.	.	.
8G\	.	.	.	.	.	.
=75	=75	=75	=75	=75	=75	=75
[2.c\)	3	8r	.	pp	2.ryy	.
.	.	8dd\L 8ffn 8aa-X 8ccc	.	.	.	.
.	.	8dd\J 8ff 8aa- 8ccc	.	.	.	.
.	.	4dd\ 4ff 4aa- 4ccc	.	.	.	.
.	.	8r	.	.	.	.
=76	=76	=76	=76	=76	=76	=76
!	!	!LO:TX:b:i:t=molto rall.	!	!	!	!
8c\L]	.	4r	.	.	2.ryy	.
8d\	2	.	.	.	.	.
8e\J	1	8r	.	.	.	.
[4.c\	3	4r	.	.	.	.
.	.	8ee\ 8gg 8bb- 8ccc	.	.	.	.
=77	=77	=77	=77	=77	=77	=77
4.c\_	.	[4.ee\ [4.gg [4.bb- [4.ccc	.	.	2.ryy	.
4c\]	.	4ee\] 4gg] 4bb-] 4ccc]	.	.	.	.
8r	.	8r	.	.	.	.
!!LO:LB:g=original
=78	=78	=78	=78	=78	=78	=78
*^	*	*	*	*	*	*
!LO:TX:t=P:problem=wspólna główka i podwójna belka t.78-81	!	!	!LO:TX:b:i:t=a tempo	!	!LO:DY:rj	!	!
16F\LL	2.F/	4	(4ff\	1	p	2.ryy	.
16A\	.	.	.	.	.	.	.
16c\	.	.	.	.	.	.	.
16A\	.	.	.	.	.	.	.
16c\	.	.	8gg\	2	.	.	.
16A\JJ	.	.	.	.	.	.	.
16c\LL	.	.	8aa\L	1	.	.	.
16A\	.	.	.	.	.	.	.
16c\	.	.	8ccc\	3	.	.	.
16A\	.	.	.	.	.	.	.
16c\	.	.	8eee\J	5	.	.	.
16A\JJ	.	.	.	.	.	.	.
=79	=79	=79	=79	=79	=79	=79	=79
16F\LL	4.F/	4	4ddd\	4	.	2.ryy	.
16A\	.	2	.	.	.	.	.
16d\	.	.	.	.	.	.	.
16A\	.	.	.	.	.	.	.
16d\	.	.	8aa\	1	.	.	.
16A\JJ	.	.	.	.	.	.	.
16F\LL	4.F/	.	4.ccc\)	3	.	.	.
16A\	.	.	.	.	.	.	.
16c\	.	.	.	.	.	.	.
16A\	.	.	.	.	.	.	.
16c\	.	.	.	.	.	.	.
16A\JJ	.	.	.	.	.	.	.
=80	=80	=80	=80	=80	=80	=80	=80
16F\LL	4.F/	.	(8aa\L	4	<	2.ryy	.
16A\	.	.	.	.	.	.	.
16c\	.	.	8gg\	.	.	.	.
16A\	.	.	.	.	.	.	.
16c\	.	.	8ff\J	.	.	.	.
16A\JJ	.	.	.	.	.	.	.
16E\LL	4.E/	5	4.aa\)	.	.	.	.
16A\	.	.	.	.	.	.	.
16c\	.	.	.	.	.	.	.
16A\	.	.	.	.	.	.	.
16c\	.	.	.	.	.	.	.
16A\JJ	.	.	.	.	[	.	.
=81	=81	=81	=81	=81	=81	=81	=81
16D\LL	4.D/	.	(8aa\L	.	.	2.ryy	.
16A\	.	.	.	.	.	.	.
16c\	.	.	8gg\	.	.	.	.
16A\	.	.	.	.	.	.	.
16c\	.	.	8ff\J	.	.	.	.
16A\JJ	.	.	.	.	.	.	.
16C\LL	4.C/	.	4.aa\)	.	.	.	.
16A\	.	.	.	.	.	.	.
16c\	.	.	.	.	.	.	.
16A\	.	.	.	.	.	.	.
16c\	.	.	.	.	.	.	.
16A\JJ	.	.	.	.	.	.	.
*v	*v	*	*	*	*	*	*
!!LO:PB:g=original
=82	=82	=82	=82	=82	=82	=82
[2.C\ [2.E [2.B-	.	(4aa\	5	mf	2.ryy	.
.	.	8dd\)	1	.	.	.
.	.	8dd\L	2	.	.	.
.	.	8ee\	3	.	.	.
.	.	8ff\J	4	.	.	.
=83	=83	=83	=83	=83	=83	=83
2.C\_ 2.E_ 2.B-_	.	8gg\L	5	.	2.ryy	.
.	.	8ff\	.	.	.	.
.	.	8dd\J	.	.	.	.
.	.	8ff\L	4	.	.	.
.	.	8ee\	3	.	.	.
.	.	8b-\J	1	.	.	.
=84	=84	=84	=84	=84	=84	=84
4C\] 4E] 4B-]	.	8dd\L	3	.	2.ryy	.
.	.	8cc\	.	.	.	.
8r	.	8g\J	.	.	.	.
4r	.	8cc\L	4	.	.	.
.	.	8b-\	.	.	.	.
8r	.	8e\J	.	.	.	.
=85	=85	=85	=85	=85	=85	=85
2.r	.	8f/L	2	>	2.ryy	.
.	.	8g/	3	.	.	.
.	.	8a/J	1	.	.	.
.	.	8b-\L	2	.	.	.
.	.	8cc\	3	.	.	.
.	.	8cc#X\J	4	]	.	.
=86	=86	=86	=86	=86	=86	=86
!	!	!LO:TX:a:i:t=Cantabile.	!	!	!	!
(8C\L	5	[4.b-\ [4.dd	.	p	2.ryy	.
8g\	1	.	.	.	.	.
8f\J	2	.	.	.	.	.
4e\	3	8b-\L] 8dd]	.	.	.	.
.	.	(8b-\ 8dd 8aa	.	.	.	.
8c\)	5	8ee\J	.	.	.	.
!!LO:LB:g=original
=87	=87	=87	=87	=87	=87	=87
*	*	*^	*	*	*	*
(8F\L	5	[4.gg/)	2.a\	.	.	2.ryy	.
8G\	.	.	.	.	.	.	.
8A\J	.	.	.	.	.	.	.
8c\L	.	(<8gg/L]	.	.	.	.	.
8d\	.	8ff/	.	2	.	.	.
8c\J	.	8ff#X/J	.	3	.	.	.
*	*	*v	*v	*	*	*	*
=88	=88	=88	=88	=88	=88	=88
8B-\L	3	[4.gg\)	1	<	2.ryy	.
8G\	.	.	.	.	.	.
8A\J	.	.	.	.	.	.
8Bn\L	3	8gg\L]	.	.	.	.
8f\	1	(8eee-X\	5	.	.	.
8G\J)	5	8bbn\J	2	[	.	.
=89	=89	=89	=89	=89	=89	=89
(8E-X\L	4	[4.ddd\)	4	.	2.ryy	.
8F\	.	.	.	.	.	.
8G\J	.	.	.	.	.	.
4c\)	.	8ddd\L]	.	.	.	.
.	.	(8ccc\	.	.	.	.
8r	.	8ddd\J	.	.	.	.
=90	=90	=90	=90	=90	=90	=90
(8EnX\L	4	[4.bb-\)	.	<	2.ryy	.
8G\	2	.	.	.	.	.
8A\J	1	.	.	.	.	.
4B-X\)	2	8bb-\L]	.	.	.	.
.	.	(8bb-\	3	.	.	.
8r	.	8ccc\J	4	[	.	.
=91	=91	=91	=91	=91	=91	=91
(8F\L	4	[4.aa\)	2	.	2.ryy	.
8G\	.	.	.	.	.	.
8A\J	.	.	.	.	.	.
4c\)	.	8aa\L]	.	.	.	.
.	.	(8aa\	3	.	.	.
8r	.	8bb-\J	4	.	.	.
!!LO:LB:g=original
=92	=92	=92	=92	=92	=92	=92
(8F#X\L	5	[4.aa-X\)	5	>	2.ryy	.
8c\	2	.	.	.	.	.
8d\J	1	.	.	.	.	.
4e-X\)	2	8aa-\L]	.	.	.	.
.	.	8aa-\	.	.	.	.
8r	.	(8bb-\J	.	]]	.	.
=93	=93	=93	=93	=93	=93	=93
(>(>[4.G\ 4.c 4.en	.	4gg\	2-5	.	2.ryy	.
.	.	8g/	.	.	.	.
8G\])) 8Bn 8f	.	8ff\L	.	.	.	.
8r	.	8ee\	.	.	.	.
8r	.	8dd\J)	.	.	.	.
=94	=94	=94	=94	=94	=94	=94
8C\L	5	[4.b-X\ [4.dd	.	pp	2.ryy	.
16F#X\L	3	.	.	.	.	.
16G\	.	.	.	.	.	.
16A\	.	.	.	.	.	.
16G\JJ	.	.	.	.	.	.
8c\L	.	8b-\L] 8dd]	.	.	.	.
8B-\	.	(8aa\	.	.	.	.
8G\J	.	8ee\J	.	.	.	.
=95	=95	=95	=95	=95	=95	=95
8F\L	5	[4.gg\)	4	.	2.ryy	.
16Bn\L	3	.	.	.	.	.
16c\	.	.	.	.	.	.
16d\	.	.	.	.	.	.
16c\JJ	.	.	.	.	.	.
8f\L	1	8gg\L]	.	.	.	.
8d\	2	(8ff\	2	.	.	.
8c\J	1	8ff#X\J	3	.	.	.
=96	=96	=96	=96	=96	=96	=96
8B-X\L	2	[4.gg\)	1	<	2.ryy	.
16F#X\L	.	.	.	.	.	.
16G\	.	.	.	.	.	.
16A\	.	.	.	.	.	.
16G\JJ	.	.	.	.	.	.
8Bn\L	.	8gg\L]	.	.	.	.
8G\	.	8eee-X\	5	.	.	.
8Fn\J	.	8bbn\J	2	[	.	.
!!LO:LB:g=original
=97	=97	=97	=97	=97	=97	=97
(8E-X\L	.	[4.ddd\	4	.	2.ryy	.
16F#X\L	.	.	.	.	.	.
16G\	.	.	.	.	.	.
16A\	.	.	.	.	.	.
16G\JJ	.	.	.	.	.	.
8c\)	.	8ddd\L]	.	.	.	.
8r	.	8ccc\	2	.	.	.
8r	.	8ccc#X\J	3	.	.	.
=98	=98	=98	=98	=98	=98	=98
(8D\L	.	[4.ddd\	1	mf	2.ryy	.
16G#X\L	.	.	.	.	.	.
16A\	.	.	.	.	.	.
16B-\	.	.	.	.	.	.
16A\JJ	.	.	.	.	.	.
8c\)	.	8ddd\L]	.	.	.	.
8r	.	(8bbb-\	.	.	.	.
8r	.	8fff#X\J	.	.	.	.
=99	=99	=99	=99	=99	=99	=99
(8G\L	.	4.aaa\)	4	.	2.ryy	.
16A\L	.	.	.	.	.	.
16B-\	.	.	.	.	.	.
16c\	.	.	.	.	.	.
16B-\JJ	.	.	.	.	.	.
4d\	.	(8ggg\L	3	.	.	.
.	.	8fffn\	2	.	.	.
8c\)	.	8eee\J	1	.	.	.
=100	=100	=100	=100	=100	=100	=100
(8B-\L	.	8ddd\L	4	.	2.ryy	.
8A\	.	8ccc\	3	.	.	.
8F#X\J	.	8aa\J	1	.	.	.
4G\	.	8bb-\L	4	.	.	.
.	.	8dd\	.	.	.	.
8c\)	.	8ee\J)	.	.	.	.
=101	=101	=101	=101	=101	=101	=101
(4F\	.	((4.b-\ 4.gg	.	>	2.ryy	.
8c\	.	.	.	.	.	.
4f\)	.	4a\)) 4ff	.	.	.	.
8r	.	8ff#X\	4	] pp	.	.
!!LO:LB:g=original
=102	=102	=102	=102	=102	=102	=102
4F\	.	4b-\ 4dd-X 4gg	5	.	2.ryy	.
8c\	.	8ee\	4	.	.	.
4f\	.	4a\ 4cc 4ff	5	.	.	.
8c\	.	8ff#X\	.	.	.	.
=103	=103	=103	=103	=103	=103	=103
4F\	.	4b-\ 4dd-X 4gg	5	.	2.ryy	.
8c\	.	8ee\	.	.	.	.
4f\	.	4a\ 4cc 4ff	.	.	.	.
8c\	.	8ff#X\	.	.	.	.
=104	=104	=104	=104	=104	=104	=104
4F\	.	4b-\ 4dd-X 4gg	.	<	2.ryy	.
8r	.	8aa\	1	.	.	.
4r	.	4bb-\	2	.	.	.
8r	.	8bbn\	1	[[	.	.
=105	=105	=105	=105	=105	=105	=105
2.r	.	[2.cccTT\	.	.	2.ryy	.
*clefG2	*	*	*	*	*	*
=106	=106	=106	=106	=106	=106	=106
4c/ 4g 4b-	.	2.cccTTT\_	.	.	2.ryy	.
8c/ 8d#X 8f#X	2 4 5	.	.	.	.	.
4c/ 4e 4g	1 3 5	.	.	.	.	.
8c/ 8f# 8a	1 2 5	.	.	.	.	.
=107	=107	=107	=107	=107	=107	=107
4c/ 4g 4b-	1 2 5	2.cccTTT\_	.	.	2.ryy	.
8c/ 8d#X 8f#X	.	.	.	.	.	.
4c/ 4e 4g	.	.	.	.	.	.
8c/ 8f# 8a	.	.	.	.	.	.
!!LO:LB:g=original
=108	=108	=108	=108	=108	=108	=108
((2.c/ 2.g 2.b-	.	4.cccTT\]	.	.	2.ryy	.
.	.	16ddd\LL	3	.	.	.
.	.	16ccc\	.	.	.	.
.	.	16bbn\	1	.	.	.
.	.	16ccc\	2	.	.	.
.	.	16ddd\	3	.	.	.
.	.	16eee\JJ	4	.	.	.
=109	=109	=109	=109	=109	=109	=109
!	!	!	!	!LO:HP:t=piu cresc.	!	!
8f/)) 8a	.	8fff\	5	<	2.ryy	.
8r	.	8r	.	.	.	.
(8B-/L 8f	4	(8bb-\L 8ddd	1 3	.	.	.
8A/J) 8f	.	8ccc\J) 8fff	2 5	.	.	.
8r	.	8r	.	.	.	.
*clefF4	*	*	*	*	*	*
8G\L [8d	3	(8bb-\L 8ddd	2 3	.	.	.
=110	=110	=110	=110	=110	=110	=110
8D\J 8d]	.	8aa\J) 8fff	1 5	.	2.ryy	.
8r	.	8r	.	.	.	.
8r	.	8r	.	.	.	.
4BB-\ 4B-	.	4ff\ 4bb- 4ddd	.	f	.	.
8r	.	8r	.	.	.	.
=111	=111	=111	=111	=111	=111	=111
4C\ 4c	.	4ff\ 4aa 4ccc	.	.	2.ryy	.
8r	.	8r	.	.	.	.
4r	.	4r	.	.	.	.
8r	.	8r	.	.	.	.
=112	=112	=112	=112	=112	=112	=112
4C\ 4c	.	4g\ 4b- 4ee	.	f	2.ryy	.
8r	.	8r	.	.	.	.
4r	.	4r	.	.	.	.
8r	.	8r	.	.	.	.
=113	=113	=113	=113	=113	=113	=113
4FF/ 4F	.	4a\ 4cc 4ff	.	f	2.ryy	.
8r	.	8r	.	.	.	.
4r	.	4r	.	.	.	.
8r	.	8r	.	.	.	.
==	==	==	==	==	==	==
*-	*-	*-	*-	*-	*-	*-
!!!system-decoration: s1{(s2,s3)}
!!!RDF**kern: < = below
!!!RDF**kern: > = above
!!!RDF**dynam: > = "dim."
!!!ENC: Anastazja Marusiak
!!!END: 2023-10-09
!!!EED: Marta Chmielewska
!!!EEV: 2023-10-23
